X:15362
T:Ships are Sailing
R:reel
H:See also #151, #186
D:Tom\'as & Seosamh \'O Ceannabh\'ain: \'O Aird go hAird
Z:id:hn-reel-687
M:C|
K:Edor
Beed B2dB|AF~F2 dFAF|EFGA BAFB|ABdf eB~B2|
~e3d B2dB|AF~F2 dFAF|EFGA Bdef|1 gefd Beed:|2 gefd Beef||
|:~g3a bgeg|fefg afdf|~g3a bgeg|(3fed ed Beef|
~g3a bgeg|fefg afdf|g2bg f2af|1 gefd Beef:|2 gefd Beed||
